!!!COM: Music21
!!!OTL: hornpipe_Tom-Fowlers
!!!OMV: hornpipe_Tom-Fowlers
**kern
*clefG2
*k[f#]
*G:
*M4/4
=1
8bL
8ccJ
=
8ddL
8ccJ
8bL
8aJ
8gL
8ggJ
8ff#L
8ggJ
=
2ee
2dd
=
8ccL
8ddJ
8ccL
8bJ
8aL
8bJ
8aL
8gJ
=
2f#
2e
=
8dL
8eJ
8f#L
8gJ
4a
4b
=
4.cc
16ddLL
16eeJJ
4dd
4cc
!!linebreak:original
=
8bL
8aJ
8gL
8aJ
4d
4f#
=
2.g
4ryy
=||
*M4/4
8bL
8ccJ
=
8ddL
8ccJ
8bL
8aJ
8gL
8ggJ
8ff#L
8ggJ
=
2ee
2dd
=
8ccL
8ddJ
8ccL
8bJ
8aL
8bJ
8aL
8gJ
=
2f#
2e
!!linebreak:original
=
8dL
8eJ
8f#L
8gJ
4a
4b
=
4.cc
16ddLL
16eeJJ
4dd
4cc
=
8bL
8aJ
8gL
8aJ
4d
4f#
=
2.g
4ryy
=||
4dd
2.ryy
=
4gg
8bbL
8ggJ
4ee
8aaL
8ggJ
=
2ff#
2dd
=
8ggL
8bbJ
4gg
8eeL
8aaJ
4gg
!!linebreak:original
=
2ff#
4dd
8eeL
8ff#J
=
8ggL
8ddJ
8ddL
8ddJ
8ggL
8ddJ
8ddL
8ddJ
=
8ggL
8ddJ
8ggL
8ddJ
8ggL
8ddJ
8ddL
8ddJ
=
4.gg
8ff#
8eeL
8ddJ
8ccL
8bJ
=
8aL
8bJ
8aL
8gJ
4.f#
8e
=
8dL
8eJ
8f#L
8gJ
4a
4b
!!linebreak:original
=
4.cc
8dd
8eeL
8ddJ
4cc
=
8bL
8aJ
8gL
8aJ
4d
4f#
=
2.g
4ryy
=||
*M4/4
8bL
8ccJ
=
8ddL
8ccJ
8bL
8aJ
8gL
8ggJ
8ff#L
8ggJ
=
2ee
2dd
=
8ccL
8ddJ
8ccL
8bJ
8aL
8bJ
8aL
8gJ
=
2f#
2e
!!linebreak:original
=
8dL
8eJ
8f#L
8gJ
4a
4b
=
4.cc
16ddLL
16eeJJ
4dd
4cc
=
8bL
8aJ
8gL
8aJ
4d
4f#
=
2.g
4ryy
=||
*M4/4
8bL
8ccJ
=
8ddL
8ccJ
8bL
8aJ
8gL
8ggJ
8ff#L
8ggJ
=
2ee
2dd
!!linebreak:original
=
8ccL
8ddJ
8ccL
8bJ
8aL
8bJ
8aL
8gJ
=
2f#
2e
=
8dL
8eJ
8f#L
8gJ
4a
4b
=
4.cc
16ddLL
16eeJJ
4dd
4cc
=
8bL
8aJ
8gL
8aJ
4d
4f#
=
2.g
4ryy
=||
4dd
2.ryy
=
4gg
8bbL
8ggJ
4ee
8aaL
8ggJ
!!linebreak:original
=
2ff#
2dd
=
8ggL
8bbJ
4gg
8eeL
8aaJ
4gg
=
2ff#
4dd
8eeL
8ff#J
=
8ggL
8ddJ
8ddL
8ddJ
8ggL
8ddJ
8ddL
8ddJ
=
8ggL
8ddJ
8ggL
8ddJ
8ggL
8ddJ
8ddL
8ddJ
=
4.gg
8ff#
8eeL
8ddJ
8ccL
8bJ
=
8aL
8bJ
8aL
8gJ
4.f#
8e
!!linebreak:original
=
8dL
8eJ
8f#L
8gJ
4a
4b
=
4.cc
8dd
8eeL
8ddJ
4cc
=
8bL
8aJ
8gL
8aJ
4d
4f#
=
2.g
4ryy
=||
*-
